X:7914
T:Sweet nightingale
C:anon.
O:England
Z:Transcribed by Frank Nordberg - http://www.musicaviva.com
F:http://abc.musicaviva.com/tunes/england/sweet-nightingale.abc
M:3/4
L:1/8
K:C
"^Allegretto"GG|c3(cG2)|c4(df)|e2(e2d2)|e4(ce)|(g2e2)g2|
(f2e2)d2|c6-|c2z2(ef)|g2(g2e2)|f4(ef)|(g2c2)d2|
G3AB2|c2d2e2|(f2g2a2)|(g3fe2)|(f3ed2)|(e3dc2)|
d4GG|(c2e2)g2|(f2e2)d2|c6-|c4|]
W:
W:
W:  From Musica Viva - http://www.musicaviva.com
W:  the Internet center for free sheet music downloads.

